img/vector-instagram.svg

<svg width="48" height="48" viewBox="0 0 48 48" fill="none" xmlns="http://www.w3.org/2000/svg">
<path fill-rule="evenodd" clip-rule="evenodd" d="M48 9.04615V38.9538C48 43.9385 43.9385 48 38.9538 48H9.04615C4.06154 48 0 43.9385 0 38.9538V9.04615C0 4.06154 4.06154 0 9.04615 0H38.9538C43.9385 0 48 4.06154 48 9.04615ZM15.5154 15.5143C17.7657 13.2639 20.8178 11.9997 24.0002 11.9997C27.1827 11.9997 30.2348 13.2639 32.4851 15.5143C34.7354 17.7647 35.9996 20.8169 35.9996 23.9994C35.9996 27.1819 34.7354 30.2341 32.4851 32.4845C30.2348 34.7349 27.1827 35.9991 24.0002 35.9991C20.8178 35.9991 17.7657 34.7349 15.5154 32.4845C13.2651 30.2341 12.0009 27.1819 12.0009 23.9994C12.0009 20.8169 13.2651 17.7647 15.5154 15.5143ZM34.4808 9.27844C35.0434 8.71584 35.8064 8.39978 36.602 8.39978C37.3976 8.39978 38.1606 8.71584 38.7232 9.27844C39.2858 9.84103 39.6019 10.6041 39.6019 11.3997C39.6019 12.1953 39.2858 12.9584 38.7232 13.521C38.1606 14.0836 37.3976 14.3996 36.602 14.3996C35.8064 14.3996 35.0434 14.0836 34.4808 13.521C33.9182 12.9584 33.6022 12.1953 33.6022 11.3997C33.6022 10.6041 33.9182 9.84103 34.4808 9.27844Z" fill="#1A1AA2"/>
<path fill-rule="evenodd" clip-rule="evenodd" d="M18.9117 18.9084C20.2619 17.5581 22.0908 16.7996 24.0002 16.7996C22.0917 16.8002 20.2614 17.5587 18.9117 18.9084Z" fill="#1A1AA2"/>
<path fill-rule="evenodd" clip-rule="evenodd" d="M26.7555 17.3472C25.882 16.9855 24.9457 16.7994 24.0002 16.7996C22.0908 16.7996 20.2619 17.5581 18.9117 18.9084C17.5615 20.2586 16.803 22.0899 16.803 23.9994C16.803 25.9089 17.5615 27.7402 18.9117 29.0904C20.2619 30.4407 22.0932 31.1992 24.0026 31.1992C24.9481 31.1991 25.8843 31.0127 26.7577 30.6507C27.6312 30.2887 28.4248 29.7583 29.0932 29.0896C29.7616 28.4209 30.2918 27.6271 30.6535 26.7535C31.0152 25.88 31.2012 24.9437 31.2011 23.9982C31.2009 23.0527 31.0145 22.1165 30.6526 21.243C30.2906 20.3696 29.7602 19.576 29.0915 18.9075C28.4229 18.2391 27.6291 17.7089 26.7555 17.3472Z" fill="#1A1AA2"/>
</svg>

<?xml version="1.0" encoding="utf-8"?>
<!-- Generator: Adobe Illustrator 23.0.1, SVG Export Plug-In . SVG Version: 6.00 Build 0)  -->
<svg version="1.1" id="Capa_1" xmlns="http://www.w3.org/2000/svg" xmlns:xlink="http://www.w3.org/1999/xlink" x="0px" y="0px"
	 viewBox="0 0 48 48" style="enable-background:new 0 0 48 48;" xml:space="preserve">
<style type="text/css">
	.st0{fill:#F7F1E8;}
	.st1{fill-rule:evenodd;clip-rule:evenodd;fill:#1A1AA2;}
</style>
<rect x="7.2" y="7.5" class="st0" width="35.3" height="31.1"/>
<path class="st1" d="M48,9V39c0,5-4.1,9-9,9H9c-5,0-9-4.1-9-9V9c0-5,4.1-9,9-9H39C43.9,0,48,4.1,48,9z M15.5,15.5
	c2.3-2.3,5.3-3.5,8.5-3.5c3.2,0,6.2,1.3,8.5,3.5S36,20.8,36,24s-1.3,6.2-3.5,8.5S27.2,36,24,36c-3.2,0-6.2-1.3-8.5-3.5
	S12,27.2,12,24S13.3,17.8,15.5,15.5z M34.5,9.3c0.6-0.6,1.3-0.9,2.1-0.9c0.8,0,1.6,0.3,2.1,0.9c0.6,0.6,0.9,1.3,0.9,2.1
	s-0.3,1.6-0.9,2.1c-0.6,0.6-1.3,0.9-2.1,0.9c-0.8,0-1.6-0.3-2.1-0.9s-0.9-1.3-0.9-2.1S33.9,9.8,34.5,9.3z"/>
<path class="st1" d="M26.8,17.3c-0.9-0.4-1.8-0.5-2.8-0.5c-1.9,0-3.7,0.8-5.1,2.1c-1.4,1.4-2.1,3.2-2.1,5.1s0.8,3.7,2.1,5.1
	c1.4,1.4,3.2,2.1,5.1,2.1c0.9,0,1.9-0.2,2.8-0.5c0.9-0.4,1.7-0.9,2.3-1.6c0.7-0.7,1.2-1.5,1.6-2.3c0.4-0.9,0.5-1.8,0.5-2.8
	c0-0.9-0.2-1.9-0.5-2.8c-0.4-0.9-0.9-1.7-1.6-2.3C28.4,18.2,27.6,17.7,26.8,17.3z"/>
</svg>
